www/images/ok@2x.svg

<svg fill="none" height="54" viewBox="0 0 55 54" width="55" xmlns="http://www.w3.org/2000/svg"><path d="m37.8565 36.2232-1.1715-1.4688v-7.992c-.001-.1176-.0281-.2336-.0794-.3399s-.1256-.2004-.2176-.2757l-2.596-12.3498c-.1548-.6693-.5715-1.2519-1.1602-1.6221-.5886-.3702-1.3019-.4982-1.9858-.3564-.684.1419-1.2836.5421-1.6695 1.1144-.3859.5722-.5271 1.2705-.393 1.9441l.506 2.403-3.3-4.0662c-.3274-.4041-.7696-.7036-1.2705-.8608-.5009-.1571-1.0381-.1647-1.5434-.0219-.5054.1428-.9561.4297-1.2953.8243s-.5514.8791-.6098 1.3922c-.0432.3394-.0167.6838.0777 1.0131.0945.3292.255.6365.4723.9039l2.5245 3.1158-4.895 2.4624c-.4736.1947-.8798.5198-1.1695.936-.2897.4161-.4506.9057-.4634 1.4096-.0128.504.1231 1.0008.3914 1.4306.2682.4299.6573.7744 1.1205.992-.3116.0369-.6126.1342-.8855.2862-1.155.6372-1.5675 1.944-1.1 3.3912l1.2705 4.1256c.0576.185.1805.3439.3465.4482l6.127 3.8556 2.343 3.0456c.0768.1002.1766.1813.2912.2367.1147.0553.241.0834.3688.0819.1316.0003.2614-.0292.3795-.0864l9.306-4.752c.106-.0547.1988-.1313.2719-.2245s.1248-.2008.1516-.3155c.0306-.1166.0337-.2386.0089-.3565s-.0768-.2287-.1519-.3239zm-9.713 4.2174-2.013-2.6136c-.0605-.0756-.1329-.1412-.2145-.1944l-5.995-3.78-1.188-3.8556c-.11-.3348-.3025-1.1502.319-1.4904.1372-.0654.2868-.102.4392-.1076.1525-.0056.3044.02.4463.0752.1089.0342.2088.0916.2925.1682.0836.0765.149.1703.1915.2746l1.1 3.1212c.0746.201.2239.3669.418.4644l3.025 1.4418c.15.0711.3183.0962.4831.0721.1648-.024.3184-.0962.4409-.2071l5.4615-4.9842c.087-.0765.1566-.1701.2042-.2748.0477-.1047.0723-.218.0723-.3327s-.0246-.228-.0723-.3327c-.0476-.1047-.1172-.1983-.2042-.2748l-5.5-4.4604c-.1269-.1046-.2828-.1693-.4476-.1857-.1648-.0163-.3308.0164-.4764.0939l-4.323 2.322c-.1239.0454-.2557.0664-.3878.0618s-.262-.0348-.3823-.0887-.2286-.1305-.3187-.2255-.1603-.2065-.2065-.3281-.0676-.251-.0629-.3807.0354-.2573.0903-.3754.1329-.2244.2297-.3128c.0967-.0885.2103-.1574.3342-.2028l.0715-.0324 6.006-3.0294 9.0585 6.7014v7.8678c-.0005.1821.0615.359.176.5022l.737.918zm-7.458-13.4082c.1883-.0335.3726-.086.55-.1566l.088-.0378 3.8995-2.0898 4.312 3.5208-4.3615 3.9798-2.2-1.053-.9735-2.8026c-.1113-.3038-.2856-.5816-.5119-.8158-.2262-.2342-.4996-.4198-.8026-.545zm2.0295-12.3174c.0123-.1327.053-.2614.1193-.3777.0664-.1163.1569-.2176.2657-.2973.1033-.0817.2222-.1423.3497-.1785.1274-.0361.261-.0471.3928-.0321.2641.0311.5051.163.671.3672l6.3635 7.8678-4.323-3.1968c-.1243-.0913-.2723-.1463-.427-.1587s-.3098.0183-.4475.0885l-2.75-3.3696c-.0825-.0987-.1439-.2127-.1808-.3351-.0368-.1224-.0483-.2508-.0337-.3777zm7.4855-.189c-.054-.2571-.0018-.5247.1452-.7439.147-.2193.3767-.3722.6385-.4252s.5344-.0017.7577.1426.3791.3698.4331.6269l1.969 9.369-2.75-3.429z" fill="#000"/><path d="m28.1435 40.4406-2.013-2.6136c-.0605-.0756-.1329-.1412-.2145-.1944l-5.995-3.78-1.188-3.8556c-.11-.3348-.3025-1.1502.319-1.4904.1372-.0654.2868-.102.4392-.1076.1525-.0056.3044.02.4463.0752.1089.0342.2088.0916.2925.1682.0836.0765.149.1703.1915.2746l1.1 3.1212c.0746.201.2239.3669.418.4644l3.025 1.4418c.15.0711.3183.0962.4831.0721.1648-.024.3184-.0962.4409-.2071l5.4615-4.9842c.087-.0765.1566-.1701.2042-.2748.0477-.1047.0723-.218.0723-.3327s-.0246-.228-.0723-.3327c-.0476-.1047-.1172-.1983-.2042-.2748l-5.5-4.4604c-.1269-.1046-.2828-.1693-.4476-.1857-.1648-.0163-.3308.0164-.4764.0939l-4.323 2.322c-.1239.0454-.2557.0664-.3878.0618s-.262-.0348-.3823-.0887-.2286-.1305-.3187-.2255-.1603-.2065-.2065-.3281-.0676-.251-.0629-.3807.0354-.2573.0903-.3754.1329-.2244.2297-.3128c.0967-.0885.2103-.1574.3342-.2028l.0715-.0324 6.006-3.0294 9.0585 6.7014v7.8678c-.0005.1821.0615.359.176.5022l.737.918zm-5.4285-25.7256c.0123-.1327.053-.2614.1193-.3777.0664-.1163.1569-.2176.2657-.2973.1033-.0817.2222-.1423.3497-.1785.1274-.0361.261-.0471.3928-.0321.2641.0311.5051.163.671.3672l6.3635 7.8678-4.323-3.1968c-.1243-.0913-.2723-.1463-.427-.1587s-.3098.0183-.4475.0885l-2.75-3.3696c-.0825-.0987-.1439-.2127-.1808-.3351-.0368-.1224-.0483-.2508-.0337-.3777zm7.4855-.189c-.054-.2571-.0018-.5247.1452-.7439.147-.2193.3767-.3722.6385-.4252s.5344-.0017.7577.1426.3791.3698.4331.6269l1.969 9.369-2.75-3.429z" fill="#fff"/></svg>

<svg width="55" height="54" viewBox="0 0 55 54" fill="none" xmlns="http://www.w3.org/2000/svg">
<path d="M37.8565 36.2232L36.685 34.7544V26.7624C36.684 26.6448 36.6569 26.5288 36.6056 26.4225C36.5543 26.3162 36.48 26.2221 36.388 26.1468L33.792 13.797C33.6372 13.1277 33.2205 12.5451 32.6318 12.1749C32.0432 11.8047 31.3299 11.6767 30.646 11.8185C29.962 11.9604 29.3624 12.3606 28.9765 12.9329C28.5906 13.5051 28.4494 14.2034 28.5835 14.877L29.0895 17.28L25.7895 13.2138C25.4621 12.8097 25.0199 12.5102 24.519 12.353C24.0181 12.1959 23.4809 12.1883 22.9756 12.3311C22.4702 12.4739 22.0195 12.7608 21.6803 13.1554C21.3411 13.55 21.1289 14.0345 21.0705 14.5476C21.0273 14.887 21.0538 15.2314 21.1482 15.5607C21.2427 15.8899 21.4032 16.1972 21.6205 16.4646L24.145 19.5804L19.25 22.0428C18.7764 22.2375 18.3702 22.5626 18.0805 22.9788C17.7908 23.3949 17.6299 23.8845 17.6171 24.3884C17.6043 24.8924 17.7402 25.3892 18.0085 25.819C18.2767 26.2489 18.6658 26.5934 19.129 26.811C18.8174 26.8479 18.5164 26.9452 18.2435 27.0972C17.0885 27.7344 16.676 29.0412 17.1435 30.4884L18.414 34.614C18.4716 34.799 18.5945 34.9579 18.7605 35.0622L24.8875 38.9178L27.2305 41.9634C27.3073 42.0636 27.4071 42.1447 27.5217 42.2001C27.6364 42.2554 27.7627 42.2835 27.8905 42.282C28.0221 42.2823 28.1519 42.2528 28.27 42.1956L37.576 37.4436C37.682 37.3889 37.7748 37.3123 37.8479 37.2191C37.921 37.1259 37.9727 37.0183 37.9995 36.9036C38.0301 36.787 38.0332 36.665 38.0084 36.5471C37.9836 36.4292 37.9316 36.3184 37.8565 36.2232ZM28.1435 40.4406L26.1305 37.827C26.07 37.7514 25.9976 37.6858 25.916 37.6326L19.921 33.8526L18.733 29.997C18.623 29.6622 18.4305 28.8468 19.052 28.5066C19.1892 28.4412 19.3388 28.4046 19.4912 28.399C19.6437 28.3934 19.7956 28.419 19.9375 28.4742C20.0464 28.5084 20.1463 28.5658 20.23 28.6424C20.3136 28.7189 20.379 28.8127 20.4215 28.917L21.5215 32.0382C21.5961 32.2392 21.7454 32.4051 21.9395 32.5026L24.9645 33.9444C25.1145 34.0155 25.2828 34.0406 25.4476 34.0165C25.6124 33.9925 25.766 33.9203 25.8885 33.8094L31.35 28.8252C31.437 28.7487 31.5066 28.6551 31.5542 28.5504C31.6019 28.4457 31.6265 28.3324 31.6265 28.2177C31.6265 28.103 31.6019 27.9897 31.5542 27.885C31.5066 27.7803 31.437 27.6867 31.35 27.6102L25.85 23.1498C25.7231 23.0452 25.5672 22.9805 25.4024 22.9641C25.2376 22.9478 25.0716 22.9805 24.926 23.058L20.603 25.38C20.4791 25.4254 20.3473 25.4464 20.2152 25.4418C20.0831 25.4372 19.9532 25.407 19.8329 25.3531C19.7126 25.2992 19.6043 25.2226 19.5142 25.1276C19.4241 25.0326 19.3539 24.9211 19.3077 24.7995C19.2615 24.6779 19.2401 24.5485 19.2448 24.4188C19.2495 24.2891 19.2802 24.1615 19.3351 24.0434C19.39 23.9253 19.468 23.819 19.5648 23.7306C19.6615 23.6421 19.7751 23.5732 19.899 23.5278L19.9705 23.4954L25.9765 20.466L35.035 27.1674V35.0352C35.0345 35.2173 35.0965 35.3942 35.211 35.5374L35.948 36.4554L28.1435 40.4406ZM20.6855 27.0324C20.8738 26.9989 21.0581 26.9464 21.2355 26.8758L21.3235 26.838L25.223 24.7482L29.535 28.269L25.1735 32.2488L22.9735 31.1958L22 28.3932C21.8887 28.0894 21.7144 27.8116 21.4881 27.5774C21.2619 27.3432 20.9885 27.1576 20.6855 27.0324ZM22.715 14.715C22.7273 14.5823 22.768 14.4536 22.8343 14.3373C22.9007 14.221 22.9912 14.1197 23.1 14.04C23.2033 13.9583 23.3222 13.8977 23.4497 13.8615C23.5771 13.8254 23.7107 13.8144 23.8425 13.8294C24.1066 13.8605 24.3476 13.9924 24.5135 14.1966L30.877 22.0644L26.554 18.8676C26.4297 18.7763 26.2817 18.7213 26.127 18.7089C25.9723 18.6965 25.8172 18.7272 25.6795 18.7974L22.9295 15.4278C22.847 15.3291 22.7856 15.2151 22.7487 15.0927C22.7119 14.9703 22.7004 14.8419 22.715 14.715ZM30.2005 14.526C30.1465 14.2689 30.1987 14.0013 30.3457 13.7821C30.4927 13.5628 30.7224 13.4099 30.9842 13.3569C31.246 13.3039 31.5186 13.3552 31.7419 13.4995C31.9652 13.6438 32.121 13.8693 32.175 14.1264L34.144 23.4954L31.394 20.0664L30.2005 14.526Z" fill="black"/>
<path d="M28.1435 40.4406L26.1305 37.827C26.07 37.7514 25.9976 37.6858 25.916 37.6326L19.921 33.8526L18.733 29.997C18.623 29.6622 18.4305 28.8468 19.052 28.5066C19.1892 28.4412 19.3388 28.4046 19.4912 28.399C19.6437 28.3934 19.7956 28.419 19.9375 28.4742C20.0464 28.5084 20.1463 28.5658 20.23 28.6424C20.3136 28.7189 20.379 28.8127 20.4215 28.917L21.5215 32.0382C21.5961 32.2392 21.7454 32.4051 21.9395 32.5026L24.9645 33.9444C25.1145 34.0155 25.2828 34.0406 25.4476 34.0165C25.6124 33.9925 25.766 33.9203 25.8885 33.8094L31.35 28.8252C31.437 28.7487 31.5066 28.6551 31.5542 28.5504C31.6019 28.4457 31.6265 28.3324 31.6265 28.2177C31.6265 28.103 31.6019 27.9897 31.5542 27.885C31.5066 27.7803 31.437 27.6867 31.35 27.6102L25.85 23.1498C25.7231 23.0452 25.5672 22.9805 25.4024 22.9641C25.2376 22.9478 25.0716 22.9805 24.926 23.058L20.603 25.38C20.4791 25.4254 20.3473 25.4464 20.2152 25.4418C20.0831 25.4372 19.9532 25.407 19.8329 25.3531C19.7126 25.2992 19.6043 25.2226 19.5142 25.1276C19.4241 25.0326 19.3539 24.9211 19.3077 24.7995C19.2615 24.6779 19.2401 24.5485 19.2448 24.4188C19.2495 24.2891 19.2802 24.1615 19.3351 24.0434C19.39 23.9253 19.468 23.819 19.5648 23.7306C19.6615 23.6421 19.7751 23.5732 19.899 23.5278L19.9705 23.4954L25.9765 20.466L35.035 27.1674V35.0352C35.0345 35.2173 35.0965 35.3942 35.211 35.5374L35.948 36.4554L28.1435 40.4406ZM22.715 14.715C22.7273 14.5823 22.768 14.4536 22.8343 14.3373C22.9007 14.221 22.9912 14.1197 23.1 14.04C23.2033 13.9583 23.3222 13.8977 23.4497 13.8615C23.5771 13.8254 23.7107 13.8144 23.8425 13.8294C24.1066 13.8605 24.3476 13.9924 24.5135 14.1966L30.877 22.0644L26.554 18.8676C26.4297 18.7763 26.2817 18.7213 26.127 18.7089C25.9723 18.6965 25.8172 18.7272 25.6795 18.7974L22.9295 15.4278C22.847 15.3291 22.7856 15.2151 22.7487 15.0927C22.7119 14.9703 22.7004 14.8419 22.715 14.715ZM30.2005 14.526C30.1465 14.2689 30.1987 14.0013 30.3457 13.7821C30.4927 13.5628 30.7224 13.4099 30.9842 13.3569C31.246 13.3039 31.5186 13.3552 31.7419 13.4995C31.9652 13.6438 32.121 13.8693 32.175 14.1264L34.144 23.4954L31.394 20.0664L30.2005 14.526Z" fill="white"/>
</svg>
